LUT-extractor/Kodak Portra 400.cube
TITLE "Kodak Portra 400"
LUT_3D_SIZE 64
DOMAIN_MIN 0.0 0.0 0.0
DOMAIN_MAX 1.0 1.0 1.0
0.027451 0.043137 0.039216
0.027451 0.043137 0.039216
0.027451 0.043137 0.043137
0.027451 0.043137 0.043137
0.023529 0.043137 0.043137
0.027451 0.047059 0.043137
0.035294 0.047059 0.043137
0.043137 0.050980 0.043137
0.050980 0.050980 0.047059
0.062745 0.054902 0.047059
0.066667 0.058824 0.047059
0.074510 0.058824 0.047059
0.082353 0.058824 0.047059
0.094118 0.066667 0.050980
0.105882 0.066667 0.050980
0.117647 0.066667 0.050980
0.133333 0.070588 0.050980
0.149020 0.070588 0.047059
0.168627 0.074510 0.047059
0.184314 0.078431 0.047059
0.207843 0.078431 0.043137
0.223529 0.078431 0.043137
0.243137 0.078431 0.039216
0.262745 0.078431 0.035294
0.278431 0.082353 0.035294
0.298039 0.082353 0.035294
0.317647 0.086275 0.035294
0.337255 0.082353 0.039216
0.356863 0.082353 0.039216
0.376471 0.082353 0.039216
0.396078 0.082353 0.035294
0.415686 0.086275 0.039216
0.435294 0.086275 0.043137
0.458824 0.086275 0.043137
0.478431 0.090196 0.050980
0.498039 0.094118 0.054902
0.517647 0.101961 0.058824
0.541176 0.098039 0.058824
0.560784 0.098039 0.062745
0.584314 0.105882 0.066667
0.607843 0.109804 0.066667
0.631373 0.117647 0.070588
0.662745 0.121569 0.086275
0.682353 0.129412 0.101961
0.705882 0.137255 0.101961
0.721569 0.145098 0.105882
0.737255 0.152941 0.113725
0.737255 0.152941 0.113725
0.737255 0.152941 0.113725
0.737255 0.152941 0.113725
0.737255 0.152941 0.113725
0.737255 0.152941 0.113725
0.737255 0.152941 0.113725
0.737255 0.152941 0.113725
0.737255 0.152941 0.113725
0.737255 0.152941 0.113725
0.737255 0.152941 0.113725
0.737255 0.152941 0.113725
0.737255 0.152941 0.113725
0.737255 0.152941 0.113725
0.741176 0.152941 0.113725
0.741176 0.152941 0.113725
0.741176 0.152941 0.113725
0.741176 0.152941 0.113725
0.027451 0.047059 0.039216
0.027451 0.047059 0.039216
0.027451 0.047059 0.043137
0.027451 0.047059 0.043137
0.023529 0.047059 0.043137
0.027451 0.047059 0.043137
0.031373 0.050980 0.043137
0.043137 0.050980 0.047059
0.050980 0.054902 0.047059
0.062745 0.054902 0.047059
0.066667 0.058824 0.047059
0.074510 0.058824 0.047059
0.082353 0.062745 0.047059
0.094118 0.066667 0.050980
0.105882 0.066667 0.050980
0.117647 0.070588 0.050980
0.133333 0.070588 0.050980
0.149020 0.074510 0.047059
0.172549 0.074510 0.047059
0.188235 0.078431 0.047059
0.207843 0.078431 0.043137
0.227451 0.078431 0.043137
0.247059 0.082353 0.039216
0.262745 0.082353 0.035294
0.278431 0.082353 0.035294
0.298039 0.086275 0.035294
0.317647 0.086275 0.035294
0.337255 0.086275 0.039216
0.356863 0.086275 0.035294
0.376471 0.086275 0.039216
0.396078 0.086275 0.035294
0.415686 0.086275 0.039216
0.439216 0.090196 0.043137
0.458824 0.090196 0.043137
0.478431 0.094118 0.050980
0.501961 0.094118 0.054902
0.521569 0.105882 0.058824
0.541176 0.101961 0.058824
0.564706 0.105882 0.062745
0.588235 0.109804 0.066667
0.611765 0.113725 0.066667
0.631373 0.121569 0.070588
0.666667 0.129412 0.086275
0.686275 0.133333 0.101961
0.705882 0.141176 0.101961
0.725490 0.149020 0.105882
0.741176 0.152941 0.113725
0.741176 0.152941 0.113725
0.741176 0.152941 0.113725
0.741176 0.156863 0.113725
0.741176 0.156863 0.113725
0.741176 0.156863 0.113725
0.741176 0.156863 0.113725
0.741176 0.156863 0.113725
0.741176 0.156863 0.113725
0.741176 0.156863 0.113725
0.741176 0.156863 0.113725
0.741176 0.156863 0.113725
0.741176 0.156863 0.113725
0.741176 0.156863 0.113725
0.741176 0.156863 0.113725
0.741176 0.156863 0.113725
0.741176 0.156863 0.113725
0.741176 0.160784 0.113725
0.027451 0.050980 0.039216
0.027451 0.050980 0.039216
0.027451 0.050980 0.039216
0.027451 0.050980 0.043137
0.023529 0.050980 0.043137
0.027451 0.050980 0.047059
0.031373 0.054902 0.047059
0.043137 0.054902 0.047059
0.050980 0.054902 0.047059
0.062745 0.058824 0.047059
0.070588 0.062745 0.047059
0.078431 0.062745 0.047059
0.086275 0.066667 0.047059
0.094118 0.070588 0.050980
0.105882 0.070588 0.050980
0.121569 0.074510 0.050980
0.137255 0.074510 0.050980
0.152941 0.074510 0.047059
0.172549 0.082353 0.047059
0.188235 0.082353 0.043137
0.207843 0.082353 0.047059
0.231373 0.082353 0.039216
0.247059 0.086275 0.039216
0.266667 0.086275 0.035294
0.286275 0.090196 0.035294
0.301961 0.090196 0.031373
0.321569 0.094118 0.035294
0.341176 0.094118 0.035294
0.360784 0.094118 0.035294
0.384314 0.094118 0.039216
0.403922 0.094118 0.035294
0.423529 0.094118 0.039216
0.443137 0.098039 0.043137
0.466667 0.101961 0.043137
0.486275 0.101961 0.050980
0.505882 0.105882 0.054902
0.529412 0.113725 0.054902
0.549020 0.113725 0.058824
0.572549 0.113725 0.062745
0.592157 0.121569 0.062745
0.615686 0.125490 0.066667
0.639216 0.129412 0.070588
0.670588 0.137255 0.090196
0.694118 0.141176 0.101961
0.713725 0.149020 0.101961
0.729412 0.156863 0.109804
0.741176 0.160784 0.113725
0.741176 0.160784 0.113725
0.741176 0.160784 0.113725
0.741176 0.160784 0.113725
0.741176 0.160784 0.109804
0.741176 0.160784 0.109804
0.745098 0.160784 0.109804
0.745098 0.164706 0.109804
0.745098 0.164706 0.109804
0.745098 0.164706 0.109804
0.745098 0.164706 0.109804
0.745098 0.164706 0.109804
0.745098 0.164706 0.109804
0.745098 0.168627 0.109804
0.745098 0.168627 0.109804
0.749020 0.168627 0.109804
0.749020 0.168627 0.109804
0.749020 0.168627 0.109804
0.027451 0.054902 0.043137
0.027451 0.054902 0.043137
0.027451 0.054902 0.043137
0.023529 0.054902 0.043137
0.023529 0.054902 0.043137
0.023529 0.054902 0.047059
0.031373 0.058824 0.047059
0.039216 0.058824 0.047059
0.050980 0.058824 0.047059
0.062745 0.062745 0.047059
0.070588 0.062745 0.047059
0.078431 0.066667 0.047059
0.086275 0.070588 0.047059
0.094118 0.074510 0.050980
0.105882 0.074510 0.050980
0.121569 0.078431 0.050980
0.137255 0.078431 0.050980
0.156863 0.082353 0.050980
0.176471 0.086275 0.047059
0.192157 0.086275 0.047059
0.211765 0.086275 0.047059
0.235294 0.090196 0.039216
0.250980 0.090196 0.039216
0.270588 0.094118 0.035294
0.290196 0.098039 0.035294
0.305882 0.098039 0.031373
0.325490 0.098039 0.035294
0.345098 0.101961 0.031373
0.368627 0.101961 0.035294
0.388235 0.105882 0.039216
0.407843 0.105882 0.035294
0.427451 0.105882 0.039216
0.450980 0.109804 0.043137
0.470588 0.109804 0.043137
0.494118 0.113725 0.050980
0.509804 0.117647 0.054902
0.533333 0.121569 0.058824
0.552941 0.125490 0.058824
0.576471 0.125490 0.058824
0.600000 0.129412 0.062745
0.623529 0.133333 0.066667
0.643137 0.141176 0.070588
0.674510 0.145098 0.090196
0.698039 0.152941 0.101961
0.717647 0.160784 0.105882
0.737255 0.164706 0.109804
0.749020 0.172549 0.109804
0.749020 0.172549 0.109804
0.749020 0.172549 0.109804
0.749020 0.172549 0.109804
0.749020 0.172549 0.109804
0.749020 0.172549 0.109804
0.749020 0.172549 0.113725
0.749020 0.172549 0.109804
0.749020 0.172549 0.113725
0.749020 0.176471 0.113725
0.749020 0.176471 0.113725
0.749020 0.176471 0.113725
0.749020 0.176471 0.113725
0.749020 0.176471 0.113725
0.752941 0.176471 0.113725
0.752941 0.176471 0.113725
0.752941 0.180392 0.113725
0.752941 0.180392 0.113725
0.023529 0.058824 0.043137
0.023529 0.058824 0.043137
0.023529 0.058824 0.043137
0.023529 0.058824 0.043137
0.023529 0.058824 0.043137
0.023529 0.058824 0.047059
0.027451 0.062745 0.047059
0.039216 0.062745 0.047059
0.050980 0.062745 0.050980
0.062745 0.066667 0.050980
0.070588 0.066667 0.050980
0.078431 0.070588 0.050980
0.090196 0.074510 0.050980
0.098039 0.078431 0.050980
0.109804 0.078431 0.050980
0.125490 0.082353 0.050980
0.137255 0.086275 0.050980
0.156863 0.090196 0.050980
0.176471 0.090196 0.047059
0.196078 0.094118 0.047059
0.215686 0.094118 0.047059
0.239216 0.094118 0.039216
0.254902 0.098039 0.035294
0.274510 0.101961 0.035294
0.294118 0.105882 0.035294
0.313725 0.105882 0.031373
0.333333 0.105882 0.035294
0.352941 0.109804 0.031373
0.372549 0.109804 0.035294
0.392157 0.113725 0.039216
0.411765 0.117647 0.035294
0.435294 0.117647 0.039216
0.454902 0.117647 0.043137
0.474510 0.121569 0.043137
0.498039 0.125490 0.050980
0.513725 0.129412 0.054902
0.537255 0.129412 0.058824
0.560784 0.137255 0.058824
0.580392 0.137255 0.058824
0.603922 0.141176 0.062745
0.623529 0.145098 0.066667
0.647059 0.149020 0.070588
0.682353 0.156863 0.090196
0.701961 0.160784 0.101961
0.721569 0.168627 0.105882
0.745098 0.176471 0.109804
0.752941 0.180392 0.113725
0.752941 0.180392 0.113725
0.752941 0.180392 0.113725
0.752941 0.180392 0.113725
0.752941 0.180392 0.113725
0.752941 0.180392 0.113725
0.752941 0.180392 0.113725
0.752941 0.184314 0.113725
0.752941 0.184314 0.113725
0.752941 0.184314 0.113725
0.752941 0.184314 0.113725
0.752941 0.184314 0.113725
0.752941 0.184314 0.113725
0.752941 0.184314 0.113725
0.752941 0.184314 0.113725
0.752941 0.188235 0.113725
0.752941 0.188235 0.113725
0.752941 0.188235 0.113725
0.019608 0.062745 0.043137
0.023529 0.062745 0.043137
0.019608 0.062745 0.043137
0.019608 0.062745 0.047059
0.015686 0.062745 0.047059
0.019608 0.062745 0.047059
0.023529 0.066667 0.047059
0.035294 0.066667 0.050980
0.050980 0.066667 0.050980
0.062745 0.070588 0.050980
0.070588 0.070588 0.050980
0.078431 0.074510 0.050980
0.090196 0.078431 0.050980
0.098039 0.082353 0.050980
0.109804 0.086275 0.050980
0.125490 0.090196 0.050980
0.141176 0.090196 0.050980
0.160784 0.094118 0.050980
0.180392 0.098039 0.047059
0.200000 0.098039 0.047059
0.219608 0.101961 0.043137
0.243137 0.101961 0.039216
0.262745 0.109804 0.035294
0.278431 0.109804 0.031373
0.298039 0.109804 0.031373
0.317647 0.113725 0.031373
0.337255 0.117647 0.035294
0.356863 0.117647 0.031373
0.376471 0.121569 0.035294
0.396078 0.121569 0.035294
0.419608 0.125490 0.035294
0.439216 0.129412 0.039216
0.458824 0.129412 0.043137
0.482353 0.133333 0.043137
0.501961 0.137255 0.050980
0.521569 0.137255 0.054902
0.545098 0.141176 0.058824
0.564706 0.145098 0.058824
0.588235 0.149020 0.058824
0.611765 0.152941 0.062745
0.631373 0.156863 0.066667
0.654902 0.156863 0.070588
0.686275 0.168627 0.090196
0.705882 0.172549 0.101961
0.729412 0.180392 0.109804
0.749020 0.188235 0.109804
0.756863 0.188235 0.113725
0.756863 0.188235 0.113725
0.756863 0.188235 0.113725
0.756863 0.188235 0.113725
0.756863 0.192157 0.113725
0.756863 0.192157 0.113725
0.756863 0.192157 0.113725
0.756863 0.192157 0.113725
0.756863 0.192157 0.113725
0.756863 0.192157 0.113725
0.756863 0.192157 0.113725
0.756863 0.192157 0.113725
0.756863 0.192157 0.113725
0.756863 0.192157 0.113725
0.756863 0.196078 0.113725
0.756863 0.196078 0.113725
0.756863 0.196078 0.113725
0.756863 0.196078 0.113725
0.019608 0.066667 0.043137
0.019608 0.066667 0.043137
0.015686 0.066667 0.043137
0.015686 0.066667 0.047059
0.011765 0.066667 0.047059
0.015686 0.070588 0.047059
0.023529 0.070588 0.047059
0.035294 0.070588 0.047059
0.050980 0.074510 0.050980
0.062745 0.074510 0.050980
0.070588 0.078431 0.050980
0.078431 0.082353 0.050980
0.090196 0.086275 0.050980
0.098039 0.086275 0.050980
0.113725 0.090196 0.050980
0.125490 0.094118 0.050980
0.145098 0.098039 0.050980
0.164706 0.101961 0.050980
0.180392 0.101961 0.047059
0.200000 0.105882 0.047059
0.223529 0.109804 0.043137
0.247059 0.113725 0.039216
0.266667 0.117647 0.031373
0.286275 0.117647 0.031373
0.301961 0.121569 0.027451
0.321569 0.125490 0.031373
0.341176 0.125490 0.031373
0.360784 0.129412 0.031373
0.384314 0.133333 0.035294
0.403922 0.133333 0.031373
0.427451 0.137255 0.035294
0.447059 0.141176 0.039216
0.470588 0.141176 0.043137
0.490196 0.145098 0.043137
0.509804 0.149020 0.047059
0.533333 0.149020 0.054902
0.552941 0.152941 0.058824
0.572549 0.156863 0.054902
0.596078 0.160784 0.058824
0.619608 0.164706 0.062745
0.643137 0.164706 0.066667
0.662745 0.168627 0.070588
0.694118 0.180392 0.090196
0.713725 0.184314 0.101961
0.733333 0.192157 0.109804
0.752941 0.196078 0.109804
0.756863 0.200000 0.113725
0.756863 0.200000 0.113725
0.760784 0.200000 0.113725
0.760784 0.200000 0.113725
0.760784 0.200000 0.113725
0.760784 0.200000 0.113725
0.760784 0.200000 0.113725
0.760784 0.200000 0.113725
0.760784 0.200000 0.113725
0.760784 0.200000 0.113725
0.760784 0.203922 0.113725
0.760784 0.203922 0.113725
0.760784 0.203922 0.113725
0.760784 0.203922 0.113725
0.760784 0.203922 0.113725
0.760784 0.203922 0.113725
0.760784 0.203922 0.113725
0.760784 0.207843 0.113725
0.011765 0.070588 0.043137
0.011765 0.070588 0.043137
0.011765 0.070588 0.043137
0.007843 0.070588 0.047059
0.007843 0.074510 0.047059
0.011765 0.074510 0.047059
0.019608 0.074510 0.047059
0.035294 0.078431 0.047059
0.050980 0.078431 0.047059
0.062745 0.082353 0.050980
0.070588 0.082353 0.050980
0.078431 0.086275 0.050980
0.090196 0.090196 0.050980
0.098039 0.094118 0.050980
0.113725 0.098039 0.050980
0.125490 0.101961 0.050980
0.145098 0.105882 0.050980
0.164706 0.109804 0.050980
0.188235 0.109804 0.047059
0.203922 0.113725 0.047059
0.223529 0.117647 0.039216
0.250980 0.121569 0.035294
0.270588 0.125490 0.027451
0.290196 0.129412 0.027451
0.309804 0.133333 0.023529
0.329412 0.133333 0.027451
0.349020 0.137255 0.027451
0.368627 0.141176 0.031373
0.388235 0.141176 0.035294
0.411765 0.145098 0.031373
0.431373 0.145098 0.035294
0.450980 0.149020 0.039216
0.474510 0.152941 0.043137
0.498039 0.156863 0.043137
0.513725 0.156863 0.047059
0.537255 0.160784 0.054902
0.556863 0.164706 0.058824
0.580392 0.164706 0.058824
0.600000 0.168627 0.058824
0.623529 0.176471 0.062745
0.647059 0.180392 0.066667
0.670588 0.180392 0.074510
0.698039 0.192157 0.094118
0.717647 0.196078 0.101961
0.741176 0.203922 0.105882
0.756863 0.207843 0.113725
0.764706 0.207843 0.113725
0.764706 0.207843 0.113725
0.764706 0.211765 0.113725
0.764706 0.211765 0.113725
0.764706 0.211765 0.113725
0.764706 0.211765 0.113725
0.764706 0.211765 0.113725
0.764706 0.211765 0.113725
0.764706 0.211765 0.113725
0.764706 0.211765 0.113725
0.764706 0.215686 0.113725
0.764706 0.215686 0.113725
0.764706 0.215686 0.113725
0.764706 0.215686 0.113725
0.764706 0.215686 0.113725
0.768627 0.219608 0.113725
0.768627 0.219608 0.113725
0.768627 0.219608 0.113725
0.007843 0.074510 0.043137
0.007843 0.074510 0.043137
0.007843 0.074510 0.047059
0.003922 0.078431 0.047059
0.003922 0.078431 0.047059
0.007843 0.078431 0.047059
0.015686 0.082353 0.050980
0.031373 0.082353 0.050980
0.047059 0.086275 0.050980
0.058824 0.090196 0.050980
0.070588 0.090196 0.050980
0.078431 0.094118 0.050980
0.090196 0.098039 0.050980
0.101961 0.101961 0.050980
0.113725 0.105882 0.050980
0.129412 0.109804 0.050980
0.149020 0.113725 0.050980
0.168627 0.117647 0.050980
0.188235 0.117647 0.047059
0.211765 0.121569 0.043137
0.227451 0.125490 0.039216
0.254902 0.129412 0.031373
0.274510 0.133333 0.027451
0.294118 0.137255 0.023529
0.313725 0.141176 0.023529
0.333333 0.145098 0.023529
0.356863 0.149020 0.027451
0.376471 0.149020 0.027451
0.396078 0.152941 0.031373
0.415686 0.156863 0.031373
0.435294 0.156863 0.035294
0.458824 0.160784 0.039216
0.482353 0.164706 0.043137
0.501961 0.168627 0.047059
0.521569 0.172549 0.047059
0.545098 0.172549 0.050980
0.564706 0.176471 0.054902
0.588235 0.176471 0.058824
0.607843 0.180392 0.058824
0.631373 0.184314 0.062745
0.650980 0.192157 0.066667
0.674510 0.196078 0.074510
0.701961 0.203922 0.098039
0.725490 0.211765 0.101961
0.745098 0.215686 0.105882
0.764706 0.219608 0.113725
0.768627 0.223529 0.113725
0.768627 0.223529 0.113725
0.768627 0.223529 0.113725
0.768627 0.223529 0.113725
0.768627 0.223529 0.113725
0.768627 0.223529 0.113725
0.768627 0.223529 0.113725
0.768627 0.223529 0.113725
0.768627 0.223529 0.117647
0.768627 0.227451 0.117647
0.768627 0.227451 0.117647
0.768627 0.227451 0.117647
0.768627 0.227451 0.117647
0.768627 0.227451 0.117647
0.772549 0.227451 0.117647
0.772549 0.227451 0.117647
0.772549 0.231373 0.117647
0.772549 0.231373 0.117647
0.003922 0.082353 0.047059
0.003922 0.082353 0.047059
0.003922 0.082353 0.047059
0.000000 0.082353 0.047059
0.000000 0.086275 0.047059
0.003922 0.086275 0.050980
0.011765 0.086275 0.050980
0.027451 0.090196 0.050980
0.039216 0.090196 0.050980
0.054902 0.094118 0.050980
0.070588 0.098039 0.050980
0.082353 0.101961 0.050980
0.090196 0.105882 0.050980
0.101961 0.109804 0.050980
0.117647 0.113725 0.050980
0.133333 0.117647 0.050980
0.149020 0.117647 0.050980
0.172549 0.125490 0.047059
0.192157 0.125490 0.047059
0.211765 0.129412 0.039216
0.235294 0.133333 0.035294
0.258824 0.137255 0.027451
0.278431 0.145098 0.023529
0.301961 0.149020 0.019608
0.321569 0.152941 0.023529
0.341176 0.152941 0.023529
0.360784 0.156863 0.023529
0.380392 0.156863 0.027451
0.403922 0.164706 0.027451
0.423529 0.164706 0.027451
0.447059 0.168627 0.031373
0.470588 0.172549 0.035294
0.490196 0.172549 0.043137
0.509804 0.176471 0.043137
0.533333 0.180392 0.043137
0.552941 0.188235 0.050980
0.572549 0.188235 0.050980
0.596078 0.188235 0.058824
0.615686 0.192157 0.058824
0.639216 0.196078 0.062745
0.658824 0.200000 0.066667
0.682353 0.207843 0.070588
0.713725 0.215686 0.098039
0.733333 0.219608 0.098039
0.752941 0.227451 0.105882
0.768627 0.231373 0.117647
0.772549 0.235294 0.117647
0.772549 0.235294 0.117647
0.772549 0.235294 0.117647
0.772549 0.235294 0.117647
0.772549 0.235294 0.117647
0.772549 0.235294 0.117647
0.772549 0.235294 0.117647
0.772549 0.235294 0.117647
0.772549 0.239216 0.117647
0.776471 0.239216 0.117647
0.776471 0.239216 0.117647
0.776471 0.239216 0.117647
0.776471 0.239216 0.117647
0.776471 0.239216 0.117647
0.776471 0.239216 0.117647
0.776471 0.243137 0.117647
0.776471 0.243137 0.117647
0.776471 0.243137 0.117647
0.000000 0.090196 0.047059
0.000000 0.090196 0.047059
0.000000 0.090196 0.047059
0.000000 0.090196 0.047059
0.000000 0.090196 0.050980
0.000000 0.090196 0.050980
0.007843 0.094118 0.050980
0.019608 0.098039 0.050980
0.035294 0.098039 0.050980
0.047059 0.101961 0.050980
0.066667 0.105882 0.050980
0.078431 0.109804 0.054902
0.094118 0.113725 0.050980
0.105882 0.117647 0.050980
0.121569 0.121569 0.050980
0.133333 0.121569 0.050980
0.152941 0.125490 0.047059
0.172549 0.133333 0.050980
0.196078 0.133333 0.043137
0.215686 0.137255 0.039216
0.239216 0.145098 0.035294
0.266667 0.145098 0.027451
0.282353 0.152941 0.023529
0.305882 0.156863 0.019608
0.325490 0.160784 0.019608
0.349020 0.164706 0.023529
0.368627 0.168627 0.023529
0.392157 0.172549 0.023529
0.411765 0.172549 0.027451
0.431373 0.176471 0.027451
0.450980 0.180392 0.031373
0.474510 0.184314 0.035294
0.498039 0.188235 0.039216
0.517647 0.188235 0.047059
0.537255 0.192157 0.043137
0.556863 0.196078 0.047059
0.580392 0.200000 0.050980
0.600000 0.207843 0.054902
0.623529 0.211765 0.062745
0.643137 0.211765 0.062745
0.666667 0.215686 0.062745
0.686275 0.219608 0.066667
0.717647 0.231373 0.098039
0.737255 0.235294 0.101961
0.756863 0.239216 0.105882
0.776471 0.247059 0.117647
0.780392 0.247059 0.117647
0.780392 0.247059 0.117647
0.780392 0.247059 0.117647
0.780392 0.247059 0.117647
0.780392 0.247059 0.117647
0.780392 0.247059 0.117647
0.780392 0.250980 0.117647
0.780392 0.250980 0.117647
0.780392 0.250980 0.117647
0.780392 0.250980 0.117647
0.780392 0.250980 0.117647
0.780392 0.250980 0.117647
0.780392 0.250980 0.117647
0.780392 0.254902 0.117647
0.780392 0.254902 0.117647
0.784314 0.254902 0.117647
0.784314 0.254902 0.117647
0.784314 0.254902 0.117647
0.000000 0.094118 0.047059
0.000000 0.094118 0.047059
0.000000 0.094118 0.047059
0.000000 0.094118 0.047059
0.000000 0.098039 0.047059
0.000000 0.098039 0.050980
0.007843 0.101961 0.050980
0.019608 0.101961 0.050980
0.031373 0.105882 0.050980
0.047059 0.109804 0.050980
0.066667 0.109804 0.050980
0.078431 0.113725 0.054902
0.094118 0.117647 0.050980
0.105882 0.121569 0.050980
0.121569 0.129412 0.050980
0.137255 0.129412 0.050980
0.156863 0.137255 0.047059
0.180392 0.141176 0.047059
0.200000 0.145098 0.043137
0.223529 0.149020 0.035294
0.243137 0.152941 0.031373
0.270588 0.156863 0.023529
0.290196 0.160784 0.019608
0.313725 0.164706 0.015686
0.333333 0.172549 0.019608
0.352941 0.172549 0.023529
0.376471 0.180392 0.023529
0.396078 0.180392 0.023529
0.415686 0.184314 0.023529
0.439216 0.188235 0.027451
0.462745 0.196078 0.027451
0.486275 0.196078 0.035294
0.505882 0.200000 0.039216
0.525490 0.203922 0.043137
0.549020 0.207843 0.043137
0.568627 0.211765 0.043137
0.588235 0.215686 0.047059
0.611765 0.219608 0.054902
0.631373 0.223529 0.058824
0.654902 0.227451 0.062745
0.674510 0.227451 0.062745
0.698039 0.231373 0.066667
0.725490 0.243137 0.094118
0.745098 0.250980 0.101961
0.760784 0.254902 0.105882
0.780392 0.258824 0.113725
0.784314 0.258824 0.117647
0.784314 0.258824 0.117647
0.784314 0.262745 0.117647
0.784314 0.262745 0.117647
0.784314 0.262745 0.117647
0.784314 0.262745 0.117647
0.784314 0.262745 0.117647
0.784314 0.262745 0.117647
0.784314 0.262745 0.117647
0.784314 0.262745 0.117647
0.788235 0.262745 0.117647
0.788235 0.262745 0.117647
0.788235 0.266667 0.117647
0.788235 0.266667 0.117647
0.788235 0.266667 0.117647
0.788235 0.266667 0.117647
0.788235 0.266667 0.117647
0.788235 0.266667 0.117647
0.000000 0.101961 0.047059
0.000000 0.101961 0.047059
0.000000 0.101961 0.047059
0.000000 0.101961 0.050980
0.000000 0.101961 0.050980
0.000000 0.105882 0.050980
0.007843 0.105882 0.050980
0.015686 0.109804 0.050980
0.031373 0.113725 0.050980
0.047059 0.117647 0.050980
0.066667 0.117647 0.050980
0.082353 0.121569 0.050980
0.094118 0.129412 0.050980
0.109804 0.129412 0.050980
0.125490 0.133333 0.050980
0.141176 0.141176 0.050980
0.160784 0.145098 0.047059
0.184314 0.149020 0.043137
0.203922 0.152941 0.039216
0.227451 0.156863 0.035294
0.247059 0.160784 0.027451
0.274510 0.168627 0.019608
0.294118 0.172549 0.011765
0.317647 0.176471 0.015686
0.341176 0.180392 0.019608
0.360784 0.188235 0.019608
0.384314 0.192157 0.019608
0.403922 0.196078 0.019608
0.427451 0.196078 0.023529
0.450980 0.203922 0.027451
0.470588 0.207843 0.027451
0.494118 0.211765 0.031373
0.513725 0.211765 0.039216
0.533333 0.215686 0.039216
0.556863 0.223529 0.043137
0.576471 0.223529 0.039216
0.596078 0.227451 0.047059
0.619608 0.235294 0.054902
0.643137 0.235294 0.058824
0.658824 0.243137 0.062745
0.682353 0.243137 0.062745
0.701961 0.247059 0.062745
0.733333 0.254902 0.094118
0.749020 0.262745 0.101961
0.768627 0.266667 0.105882
0.784314 0.270588 0.113725
0.788235 0.270588 0.117647
0.788235 0.270588 0.117647
0.788235 0.270588 0.117647
0.788235 0.274510 0.117647
0.788235 0.274510 0.117647
0.788235 0.274510 0.117647
0.792157 0.274510 0.117647
0.792157 0.274510 0.117647
0.792157 0.274510 0.117647
0.792157 0.274510 0.117647
0.792157 0.274510 0.117647
0.792157 0.274510 0.117647
0.792157 0.274510 0.117647
0.792157 0.274510 0.117647
0.792157 0.274510 0.117647
0.792157 0.278431 0.117647
0.792157 0.278431 0.117647
0.792157 0.278431 0.117647
0.000000 0.109804 0.050980
0.000000 0.109804 0.047059
0.000000 0.105882 0.050980
0.000000 0.109804 0.050980
0.000000 0.109804 0.050980
0.000000 0.113725 0.054902
0.003922 0.113725 0.050980
0.015686 0.117647 0.050980
0.031373 0.121569 0.050980
0.047059 0.125490 0.050980
0.066667 0.125490 0.050980
0.082353 0.129412 0.050980
0.094118 0.133333 0.050980
0.109804 0.141176 0.050980
0.125490 0.145098 0.050980
0.145098 0.149020 0.047059
0.164706 0.152941 0.043137
0.188235 0.156863 0.043137
0.211765 0.164706 0.035294
0.231373 0.168627 0.027451
0.254902 0.172549 0.023529
0.282353 0.180392 0.019608
0.305882 0.188235 0.011765
0.325490 0.188235 0.011765
0.349020 0.196078 0.015686
0.368627 0.196078 0.019608
0.388235 0.203922 0.015686
0.411765 0.207843 0.019608
0.435294 0.211765 0.023529
0.454902 0.215686 0.027451
0.478431 0.219608 0.027451
0.498039 0.223529 0.031373
0.521569 0.227451 0.035294
0.541176 0.231373 0.035294
0.560784 0.231373 0.043137
0.584314 0.239216 0.043137
0.603922 0.243137 0.043137
0.623529 0.247059 0.050980
0.647059 0.250980 0.058824
0.666667 0.254902 0.062745
0.690196 0.258824 0.058824
0.709804 0.262745 0.054902
0.737255 0.270588 0.090196
0.756863 0.274510 0.101961
0.772549 0.282353 0.105882
0.792157 0.282353 0.117647
0.792157 0.282353 0.117647
0.796078 0.282353 0.117647
0.796078 0.282353 0.117647
0.796078 0.282353 0.117647
0.796078 0.282353 0.117647
0.796078 0.282353 0.117647
0.796078 0.282353 0.117647
