LUT-extractor/Kodak Portra 400.cube
TITLE "Kodak Portra 400"
LUT_3D_SIZE 4
DOMAIN_MIN 0.0 0.0 0.0
DOMAIN_MAX 1.0 1.0 1.0
0.027451 0.043137 0.039216
0.223529 0.078431 0.043137
0.662745 0.121569 0.086275
0.741176 0.152941 0.113725
0.000000 0.192157 0.039216
0.349020 0.298039 0.000000
0.792157 0.384314 0.086275
0.850980 0.403922 0.121569
0.458824 0.596078 0.000000
0.600000 0.627451 0.000000
0.945098 0.713725 0.000000
0.988235 0.721569 0.054902
0.525490 0.658824 0.000000
0.639216 0.682353 0.000000
0.964706 0.784314 0.000000
0.996078 0.784314 0.031373
0.000000 0.035294 0.286275
0.262745 0.129412 0.345098
0.717647 0.250980 0.435294
0.784314 0.282353 0.462745
0.000000 0.294118 0.380392
0.345098 0.388235 0.411765
0.811765 0.478431 0.474510
0.870588 0.498039 0.501961
0.384314 0.694118 0.435294
0.552941 0.709804 0.396078
0.917647 0.768627 0.419608
0.976471 0.792157 0.501961
0.474510 0.745098 0.411765
0.600000 0.752941 0.364706
0.925490 0.819608 0.396078
0.992157 0.850980 0.498039
0.000000 0.149020 0.639216
0.000000 0.266667 0.694118
0.713725 0.447059 0.796078
0.784314 0.474510 0.815686
0.000000 0.403922 0.729412
0.027451 0.498039 0.760784
0.784314 0.619608 0.835294
0.854902 0.639216 0.850980
0.003922 0.776471 0.823529
0.380392 0.811765 0.819608
0.874510 0.890196 0.862745
0.960784 0.901961 0.874510
0.227451 0.819608 0.819608
0.466667 0.843137 0.811765
0.878431 0.921569 0.850980
0.976471 0.945098 0.878431
0.000000 0.192157 0.674510
0.000000 0.266667 0.709804
0.701961 0.478431 0.811765
0.776471 0.498039 0.827451
0.000000 0.427451 0.760784
0.000000 0.505882 0.792157
0.756863 0.643137 0.858824
0.839216 0.662745 0.870588
0.000000 0.768627 0.854902
0.266667 0.807843 0.854902
0.839216 0.901961 0.909804
0.937255 0.917647 0.925490
0.094118 0.819608 0.854902
0.396078 0.847059 0.862745
0.843137 0.933333 0.909804
0.956863 0.956863 0.925490
