LUT-extractor/Kodak Portra 400.cube
TITLE "Kodak Portra 400"
LUT_3D_SIZE 8
DOMAIN_MIN 0.0 0.0 0.0
DOMAIN_MAX 1.0 1.0 1.0
0.027451 0.043137 0.039216
0.062745 0.054902 0.047059
0.168627 0.074510 0.047059
0.337255 0.082353 0.039216
0.517647 0.101961 0.058824
0.721569 0.145098 0.105882
0.737255 0.152941 0.113725
0.741176 0.152941 0.113725
0.003922 0.082353 0.047059
0.054902 0.094118 0.050980
0.192157 0.125490 0.047059
0.380392 0.156863 0.027451
0.572549 0.188235 0.050980
0.768627 0.231373 0.117647
0.772549 0.239216 0.117647
0.776471 0.243137 0.117647
0.000000 0.152941 0.050980
0.047059 0.172549 0.043137
0.243137 0.227451 0.003922
0.450980 0.282353 0.011765
0.643137 0.313725 0.035294
0.823529 0.349020 0.121569
0.823529 0.352941 0.125490
0.827451 0.356863 0.125490
0.019608 0.290196 0.000000
0.156863 0.313725 0.000000
0.349020 0.372549 0.000000
0.537255 0.427451 0.000000
0.713725 0.458824 0.003922
0.882353 0.486275 0.094118
0.886275 0.490196 0.109804
0.886275 0.490196 0.109804
0.317647 0.474510 0.000000
0.368627 0.486275 0.000000
0.474510 0.521569 0.000000
0.619608 0.564706 0.000000
0.776471 0.592157 0.000000
0.941176 0.611765 0.054902
0.945098 0.615686 0.066667
0.945098 0.615686 0.066667
0.521569 0.654902 0.000000
0.549020 0.658824 0.000000
0.607843 0.670588 0.000000
0.709804 0.705882 0.000000
0.858824 0.752941 0.000000
0.996078 0.780392 0.015686
0.996078 0.776471 0.031373
0.996078 0.776471 0.031373
0.525490 0.658824 0.000000
0.556863 0.666667 0.000000
0.611765 0.678431 0.000000
0.705882 0.705882 0.000000
0.850980 0.756863 0.000000
0.996078 0.784314 0.007843
0.996078 0.784314 0.031373
0.996078 0.784314 0.031373
0.525490 0.658824 0.000000
0.556863 0.666667 0.000000
0.611765 0.678431 0.000000
0.701961 0.705882 0.000000
0.847059 0.756863 0.000000
0.992157 0.784314 0.000000
0.996078 0.784314 0.031373
0.996078 0.784314 0.031373
0.003922 0.054902 0.105882
0.050980 0.062745 0.113725
0.180392 0.086275 0.133333
0.356863 0.101961 0.149020
0.545098 0.129412 0.180392
0.745098 0.188235 0.243137
0.756863 0.192157 0.243137
0.756863 0.196078 0.239216
0.000000 0.098039 0.109804
0.039216 0.109804 0.117647
0.203922 0.145098 0.133333
0.400000 0.180392 0.156863
0.592157 0.211765 0.188235
0.784314 0.266667 0.250980
0.788235 0.270588 0.250980
0.788235 0.274510 0.247059
0.000000 0.180392 0.121569
0.007843 0.203922 0.133333
0.250980 0.250980 0.145098
0.462745 0.298039 0.164706
0.650980 0.337255 0.196078
0.831373 0.380392 0.262745
0.835294 0.380392 0.262745
0.835294 0.384314 0.262745
0.000000 0.329412 0.137255
0.094118 0.352941 0.133333
0.345098 0.396078 0.141176
0.533333 0.443137 0.160784
0.713725 0.478431 0.188235
0.886275 0.513725 0.266667
0.894118 0.517647 0.282353
0.894118 0.517647 0.282353
0.294118 0.509804 0.074510
0.352941 0.521569 0.062745
0.462745 0.541176 0.066667
0.603922 0.568627 0.082353
0.760784 0.596078 0.117647
0.937255 0.627451 0.227451
0.945098 0.639216 0.282353
0.945098 0.635294 0.278431
0.517647 0.678431 0.000000
0.549020 0.686275 0.000000
0.607843 0.698039 0.000000
0.701961 0.717647 0.000000
0.835294 0.749020 0.007843
0.996078 0.800000 0.247059
0.996078 0.796078 0.266667
0.996078 0.796078 0.266667
0.529412 0.686275 0.000000
0.556863 0.694118 0.000000
0.615686 0.705882 0.000000
0.701961 0.725490 0.000000
0.831373 0.752941 0.000000
0.992157 0.792157 0.101961
0.996078 0.803922 0.254902
0.996078 0.803922 0.254902
0.529412 0.686275 0.000000
0.560784 0.694118 0.000000
0.615686 0.705882 0.000000
0.701961 0.725490 0.000000
0.827451 0.752941 0.000000
0.992157 0.792157 0.066667
0.996078 0.803922 0.258824
0.996078 0.803922 0.258824
0.000000 0.050980 0.235294
0.007843 0.058824 0.243137
0.184314 0.105882 0.274510
0.380392 0.141176 0.309804
0.572549 0.184314 0.349020
0.768627 0.250980 0.400000
0.776471 0.258824 0.407843
0.780392 0.258824 0.403922
0.000000 0.121569 0.250980
0.000000 0.133333 0.262745
0.200000 0.176471 0.290196
0.415686 0.215686 0.325490
0.611765 0.258824 0.360784
0.800000 0.317647 0.419608
0.800000 0.321569 0.415686
0.800000 0.325490 0.415686
0.000000 0.227451 0.290196
0.000000 0.250980 0.305882
0.239216 0.301961 0.325490
0.466667 0.345098 0.352941
0.662745 0.388235 0.384314
0.843137 0.431373 0.439216
0.843137 0.431373 0.435294
0.847059 0.435294 0.435294
0.000000 0.396078 0.349020
0.015686 0.419608 0.349020
0.325490 0.458824 0.356863
0.537255 0.498039 0.372549
0.721569 0.529412 0.392157
0.894118 0.560784 0.443137
0.901961 0.564706 0.458824
0.901961 0.564706 0.454902
0.196078 0.572549 0.360784
0.298039 0.580392 0.352941
0.435294 0.600000 0.345098
0.592157 0.619608 0.349020
0.756863 0.639216 0.360784
0.937255 0.666667 0.415686
0.945098 0.674510 0.431373
0.941176 0.670588 0.427451
0.470588 0.721569 0.345098
0.509804 0.725490 0.321569
0.572549 0.733333 0.301961
0.674510 0.745098 0.294118
0.815686 0.772549 0.309804
0.992157 0.827451 0.407843
0.992157 0.827451 0.431373
0.992157 0.827451 0.427451
0.486275 0.725490 0.329412
0.517647 0.725490 0.309804
0.580392 0.733333 0.286275
0.674510 0.749020 0.278431
0.807843 0.776471 0.286275
0.992157 0.827451 0.368627
0.996078 0.835294 0.415686
0.996078 0.835294 0.411765
0.490196 0.725490 0.317647
0.521569 0.725490 0.298039
0.580392 0.733333 0.278431
0.670588 0.749020 0.274510
0.803922 0.776471 0.286275
0.988235 0.823529 0.356863
0.996078 0.835294 0.411765
0.996078 0.835294 0.415686
0.000000 0.031373 0.384314
0.000000 0.043137 0.388235
0.152941 0.145098 0.435294
0.396078 0.200000 0.474510
0.592157 0.258824 0.517647
0.784314 0.333333 0.572549
0.792157 0.333333 0.572549
0.792157 0.333333 0.572549
0.000000 0.137255 0.411765
0.000000 0.141176 0.415686
0.149020 0.215686 0.454902
0.415686 0.270588 0.494118
0.619608 0.321569 0.529412
0.811765 0.384314 0.584314
0.811765 0.388235 0.584314
0.815686 0.388235 0.580392
0.000000 0.270588 0.466667
0.000000 0.286275 0.478431
0.149020 0.349020 0.498039
0.462745 0.396078 0.529412
0.662745 0.439216 0.560784
0.850980 0.490196 0.603922
0.854902 0.490196 0.603922
0.854902 0.494118 0.603922
0.000000 0.450980 0.541176
0.000000 0.482353 0.541176
0.262745 0.521569 0.545098
0.521569 0.560784 0.560784
0.717647 0.588235 0.576471
0.898039 0.611765 0.603922
0.905882 0.615686 0.619608
0.905882 0.615686 0.615686
0.062745 0.631373 0.564706
0.196078 0.639216 0.552941
0.392157 0.654902 0.549020
0.568627 0.670588 0.545098
0.745098 0.694118 0.552941
0.937255 0.725490 0.596078
0.941176 0.725490 0.603922
0.941176 0.725490 0.600000
0.423529 0.768627 0.564706
0.462745 0.772549 0.549020
0.537255 0.780392 0.533333
0.647059 0.792157 0.525490
0.800000 0.819608 0.529412
0.984314 0.866667 0.596078
0.992157 0.870588 0.603922
0.992157 0.866667 0.600000
0.443137 0.776471 0.556863
0.478431 0.776471 0.537255
0.545098 0.780392 0.521569
0.643137 0.792157 0.513725
0.788235 0.819608 0.513725
0.980392 0.866667 0.576471
0.992157 0.874510 0.592157
0.992157 0.874510 0.592157
0.447059 0.772549 0.549020
0.482353 0.772549 0.529412
0.549020 0.780392 0.517647
0.647059 0.792157 0.505882
0.784314 0.819608 0.509804
0.972549 0.866667 0.564706
0.992157 0.874510 0.588235
0.992157 0.874510 0.588235
0.000000 0.066667 0.533333
0.000000 0.082353 0.537255
0.000000 0.188235 0.584314
0.372549 0.278431 0.631373
0.592157 0.337255 0.674510
0.792157 0.411765 0.729412
0.796078 0.415686 0.729412
0.796078 0.411765 0.725490
0.000000 0.184314 0.568627
0.000000 0.188235 0.568627
0.000000 0.262745 0.607843
0.388235 0.337255 0.647059
0.611765 0.392157 0.686275
0.811765 0.454902 0.737255
0.815686 0.454902 0.733333
0.815686 0.454902 0.729412
0.000000 0.313725 0.619608
0.000000 0.317647 0.619608
0.011765 0.396078 0.650980
0.423529 0.450980 0.678431
0.647059 0.498039 0.713725
0.847059 0.552941 0.752941
0.854902 0.552941 0.752941
0.854902 0.556863 0.752941
0.000000 0.478431 0.690196
0.000000 0.517647 0.701961
0.082353 0.564706 0.698039
0.474510 0.607843 0.717647
0.690196 0.639216 0.737255
0.894118 0.670588 0.776471
0.901961 0.670588 0.776471
0.901961 0.670588 0.772549
0.000000 0.674510 0.729412
0.035294 0.682353 0.721569
0.290196 0.701961 0.717647
0.521569 0.721569 0.721569
0.721569 0.749020 0.733333
0.929412 0.776471 0.760784
0.941176 0.780392 0.764706
0.941176 0.776471 0.760784
0.325490 0.803922 0.733333
0.388235 0.807843 0.725490
0.474510 0.819608 0.717647
0.603922 0.835294 0.713725
0.768627 0.866667 0.721569
0.976471 0.909804 0.760784
0.984314 0.913725 0.784314
0.984314 0.913725 0.780392
0.360784 0.807843 0.729412
0.411765 0.811765 0.717647
0.490196 0.819608 0.705882
0.603922 0.835294 0.701961
0.760784 0.866667 0.709804
0.972549 0.913725 0.745098
0.988235 0.917647 0.760784
0.988235 0.917647 0.752941
0.368627 0.807843 0.721569
0.415686 0.811765 0.709804
0.494118 0.819608 0.701961
0.607843 0.835294 0.698039
0.760784 0.862745 0.701961
0.964706 0.909804 0.737255
0.988235 0.913725 0.749020
0.988235 0.913725 0.745098
0.000000 0.192157 0.674510
0.000000 0.200000 0.682353
0.000000 0.227451 0.690196
0.254902 0.364706 0.749020
0.549020 0.431373 0.788235
0.772549 0.498039 0.823529
0.776471 0.498039 0.827451
0.776471 0.498039 0.827451
0.000000 0.266667 0.701961
0.000000 0.270588 0.705882
0.000000 0.286275 0.713725
0.258824 0.407843 0.760784
0.564706 0.474510 0.800000
0.788235 0.537255 0.835294
0.792157 0.541176 0.835294
0.792157 0.541176 0.835294
0.000000 0.380392 0.745098
0.000000 0.380392 0.745098
0.000000 0.403922 0.760784
0.286275 0.509804 0.788235
0.592157 0.564706 0.827451
0.819608 0.627451 0.858824
0.827451 0.627451 0.858824
0.827451 0.627451 0.858824
0.000000 0.521569 0.796078
0.000000 0.521569 0.796078
0.000000 0.588235 0.819608
0.337255 0.643137 0.827451
0.619608 0.682353 0.854902
0.858824 0.725490 0.886275
0.870588 0.725490 0.886275
0.874510 0.725490 0.886275
0.000000 0.670588 0.843137
0.000000 0.694118 0.843137
0.000000 0.721569 0.839216
0.392157 0.752941 0.847059
0.643137 0.788235 0.870588
0.894118 0.835294 0.905882
0.909804 0.835294 0.909804
0.909804 0.831373 0.905882
0.043137 0.807843 0.850980
0.156863 0.819608 0.854902
0.325490 0.835294 0.854902
0.509804 0.862745 0.866667
0.701961 0.901961 0.886275
0.949020 0.949020 0.921569
0.956863 0.952941 0.921569
0.960784 0.949020 0.917647
0.105882 0.819608 0.850980
0.215686 0.827451 0.850980
0.352941 0.843137 0.854902
0.509804 0.862745 0.862745
0.694118 0.898039 0.882353
0.941176 0.949020 0.917647
0.960784 0.952941 0.917647
0.960784 0.952941 0.917647
0.125490 0.819608 0.850980
0.239216 0.827451 0.850980
0.368627 0.843137 0.850980
0.521569 0.862745 0.858824
0.694118 0.898039 0.874510
0.937255 0.949020 0.909804
0.964706 0.952941 0.913725
0.964706 0.952941 0.913725
0.000000 0.192157 0.674510
0.000000 0.200000 0.682353
0.000000 0.227451 0.690196
0.250980 0.364706 0.749020
0.549020 0.431373 0.788235
0.772549 0.498039 0.823529
0.776471 0.498039 0.827451
0.776471 0.498039 0.827451
0.000000 0.266667 0.701961
0.000000 0.270588 0.705882
0.000000 0.286275 0.713725
0.254902 0.407843 0.760784
0.560784 0.474510 0.800000
0.788235 0.537255 0.835294
0.792157 0.541176 0.835294
0.792157 0.541176 0.835294
0.000000 0.380392 0.745098
0.000000 0.380392 0.745098
0.000000 0.403922 0.756863
0.282353 0.505882 0.788235
0.588235 0.564706 0.823529
0.819608 0.627451 0.858824
0.827451 0.627451 0.858824
0.827451 0.627451 0.858824
0.000000 0.521569 0.796078
0.000000 0.521569 0.796078
0.000000 0.588235 0.819608
0.325490 0.643137 0.827451
0.611765 0.682353 0.858824
0.854902 0.725490 0.886275
0.866667 0.725490 0.886275
0.866667 0.725490 0.886275
0.000000 0.666667 0.843137
0.000000 0.690196 0.847059
0.000000 0.717647 0.843137
0.372549 0.752941 0.850980
0.631373 0.788235 0.874510
0.886275 0.835294 0.905882
0.901961 0.835294 0.909804
0.901961 0.835294 0.909804
0.035294 0.807843 0.854902
0.133333 0.819608 0.854902
0.301961 0.835294 0.858824
0.494118 0.862745 0.870588
0.686275 0.898039 0.894118
0.941176 0.949020 0.925490
0.956863 0.952941 0.925490
0.956863 0.952941 0.929412
0.086275 0.819608 0.854902
0.184314 0.827451 0.854902
0.329412 0.839216 0.858824
0.501961 0.866667 0.870588
0.682353 0.901961 0.890196
0.929412 0.952941 0.925490
0.956863 0.956863 0.925490
0.956863 0.956863 0.925490
0.090196 0.819608 0.854902
0.188235 0.827451 0.854902
0.333333 0.839216 0.858824
0.501961 0.866667 0.870588
0.678431 0.901961 0.890196
0.921569 0.949020 0.921569
0.956863 0.956863 0.925490
0.956863 0.956863 0.925490
0.000000 0.192157 0.674510
0.000000 0.200000 0.682353
0.000000 0.227451 0.690196
0.247059 0.364706 0.745098
0.549020 0.431373 0.788235
0.772549 0.498039 0.823529
0.776471 0.498039 0.827451
0.776471 0.498039 0.827451
0.000000 0.266667 0.701961
0.000000 0.274510 0.705882
0.000000 0.286275 0.713725
0.250980 0.407843 0.760784
0.560784 0.474510 0.800000
0.788235 0.537255 0.835294
0.792157 0.541176 0.835294
0.792157 0.541176 0.835294
0.000000 0.380392 0.745098
0.000000 0.384314 0.745098
0.000000 0.403922 0.756863
0.278431 0.505882 0.788235
0.588235 0.564706 0.823529
0.819608 0.623529 0.858824
0.827451 0.627451 0.858824
0.827451 0.627451 0.858824
0.000000 0.521569 0.796078
0.000000 0.521569 0.796078
0.000000 0.588235 0.819608
0.321569 0.643137 0.827451
0.607843 0.682353 0.858824
0.850980 0.725490 0.886275
0.866667 0.725490 0.886275
0.866667 0.725490 0.886275
0.000000 0.666667 0.843137
0.000000 0.690196 0.847059
0.000000 0.717647 0.843137
0.372549 0.752941 0.850980
0.627451 0.788235 0.874510
0.886275 0.835294 0.905882
0.901961 0.835294 0.909804
0.901961 0.831373 0.909804
0.031373 0.807843 0.854902
0.125490 0.819608 0.854902
0.298039 0.835294 0.858824
0.494118 0.862745 0.870588
0.686275 0.898039 0.894118
0.937255 0.949020 0.925490
0.956863 0.952941 0.925490
0.956863 0.949020 0.929412
0.086275 0.819608 0.854902
0.184314 0.827451 0.854902
0.329412 0.839216 0.858824
0.498039 0.866667 0.870588
0.682353 0.901961 0.890196
0.925490 0.952941 0.925490
0.956863 0.956863 0.925490
0.956863 0.956863 0.925490
0.094118 0.819608 0.854902
0.192157 0.827451 0.854902
0.337255 0.839216 0.858824
0.501961 0.866667 0.870588
0.678431 0.901961 0.890196
0.921569 0.949020 0.921569
0.956863 0.956863 0.925490
0.956863 0.956863 0.925490
